static/img/kroki/a1a54a87e40eb4fbca9d8d97b3e3fc80.svg

<?xml version="1.0" encoding="us-ascii" standalone="no"?><svg xmlns="http://www.w3.org/2000/svg" xmlns:xlink="http://www.w3.org/1999/xlink" contentStyleType="text/css" height="535px" preserveAspectRatio="none" style="width:212px;height:535px;" version="1.1" viewBox="0 0 212 535" width="212px" zoomAndPan="magnify"><defs/><g><!--class onprem_region--><g id="elem_onprem_region"><rect codeLine="23" fill="#3D176E" height="39.7891" id="onprem_region" rx="2.5" ry="2.5" style="stroke:#000D19;stroke-width:0.5;" width="169" x="21.5" y="489.37"/><ellipse cx="36.5" cy="509.2645" fill="#ADD1B2" rx="11" ry="11" style="stroke:#181818;stroke-width:1.0;"/><path d="M39.4688,514.9052 Q38.8906,515.202 38.25,515.3427 Q37.6094,515.4989 36.9063,515.4989 Q34.4063,515.4989 33.0781,513.8583 Q31.7656,512.202 31.7656,509.077 Q31.7656,505.952 33.0781,504.2958 Q34.4063,502.6395 36.9063,502.6395 Q37.6094,502.6395 38.25,502.7958 Q38.9063,502.952 39.4688,503.2489 L39.4688,505.9677 Q38.8438,505.3895 38.25,505.1239 Q37.6563,504.8427 37.0313,504.8427 Q35.6875,504.8427 35,505.9208 Q34.3125,506.9833 34.3125,509.077 Q34.3125,511.1708 35,512.2489 Q35.6875,513.3114 37.0313,513.3114 Q37.6563,513.3114 38.25,513.0458 Q38.8438,512.7645 39.4688,512.1864 L39.4688,514.9052 Z " fill="#000000"/><text fill="#D9B8FF" font-family="Helvetica" font-size="17" lengthAdjust="spacing" textLength="127" x="55.5" y="515.1498">onprem_region</text></g><!--class phantom_resource--><g id="elem_phantom_resource"><rect codeLine="26" fill="#3D176E" height="39.7891" id="phantom_resource" rx="2.5" ry="2.5" style="stroke:#000D19;stroke-width:0.5;" width="198" x="7" y="167.79"/><ellipse cx="22" cy="187.6845" fill="#ADD1B2" rx="11" ry="11" style="stroke:#181818;stroke-width:1.0;"/><path d="M24.9688,193.3252 Q24.3906,193.622 23.75,193.7627 Q23.1094,193.9189 22.4063,193.9189 Q19.9063,193.9189 18.5781,192.2783 Q17.2656,190.622 17.2656,187.497 Q17.2656,184.372 18.5781,182.7158 Q19.9063,181.0595 22.4063,181.0595 Q23.1094,181.0595 23.75,181.2158 Q24.4063,181.372 24.9688,181.6689 L24.9688,184.3877 Q24.3438,183.8095 23.75,183.5439 Q23.1563,183.2627 22.5313,183.2627 Q21.1875,183.2627 20.5,184.3408 Q19.8125,185.4033 19.8125,187.497 Q19.8125,189.5908 20.5,190.6689 Q21.1875,191.7314 22.5313,191.7314 Q23.1563,191.7314 23.75,191.4658 Q24.3438,191.1845 24.9688,190.6064 L24.9688,193.3252 Z " fill="#000000"/><text fill="#D9B8FF" font-family="Helvetica" font-size="17" lengthAdjust="spacing" textLength="156" x="41" y="193.5698">phantom_resource</text></g><!--class region--><g id="elem_region"><rect codeLine="29" fill="#3D176E" height="39.7891" id="region" rx="2.5" ry="2.5" style="stroke:#000D19;stroke-width:0.5;" width="95" x="58.5" y="328.58"/><ellipse cx="73.5" cy="348.4745" fill="#ADD1B2" rx="11" ry="11" style="stroke:#181818;stroke-width:1.0;"/><path d="M76.4688,354.1152 Q75.8906,354.412 75.25,354.5527 Q74.6094,354.7089 73.9063,354.7089 Q71.4063,354.7089 70.0781,353.0683 Q68.7656,351.412 68.7656,348.287 Q68.7656,345.162 70.0781,343.5058 Q71.4063,341.8495 73.9063,341.8495 Q74.6094,341.8495 75.25,342.0058 Q75.9063,342.162 76.4688,342.4589 L76.4688,345.1777 Q75.8438,344.5995 75.25,344.3339 Q74.6563,344.0527 74.0313,344.0527 Q72.6875,344.0527 72,345.1308 Q71.3125,346.1933 71.3125,348.287 Q71.3125,350.3808 72,351.4589 Q72.6875,352.5214 74.0313,352.5214 Q74.6563,352.5214 75.25,352.2558 Q75.8438,351.9745 76.4688,351.3964 L76.4688,354.1152 Z " fill="#000000"/><text fill="#D9B8FF" font-family="Helvetica" font-size="17" lengthAdjust="spacing" textLength="53" x="92.5" y="354.3598">region</text></g><!--class resource--><g id="elem_resource"><rect codeLine="32" fill="#3D176E" height="39.7891" id="resource" rx="2.5" ry="2.5" style="stroke:#000D19;stroke-width:0.5;" width="113" x="49.5" y="7"/><ellipse cx="64.5" cy="26.8945" fill="#ADD1B2" rx="11" ry="11" style="stroke:#181818;stroke-width:1.0;"/><path d="M67.4688,32.5352 Q66.8906,32.832 66.25,32.9727 Q65.6094,33.1289 64.9063,33.1289 Q62.4063,33.1289 61.0781,31.4883 Q59.7656,29.832 59.7656,26.707 Q59.7656,23.582 61.0781,21.9258 Q62.4063,20.2695 64.9063,20.2695 Q65.6094,20.2695 66.25,20.4258 Q66.9063,20.582 67.4688,20.8789 L67.4688,23.5977 Q66.8438,23.0195 66.25,22.7539 Q65.6563,22.4727 65.0313,22.4727 Q63.6875,22.4727 63,23.5508 Q62.3125,24.6133 62.3125,26.707 Q62.3125,28.8008 63,29.8789 Q63.6875,30.9414 65.0313,30.9414 Q65.6563,30.9414 66.25,30.6758 Q66.8438,30.3945 67.4688,29.8164 L67.4688,32.5352 Z " fill="#000000"/><text fill="#D9B8FF" font-family="Helvetica" font-size="17" lengthAdjust="spacing" textLength="71" x="83.5" y="32.7798">resource</text></g><!--reverse link region to onprem_region--><g id="link_region_onprem_region"><path codeLine="35" d="M106,386.63 C106,417.15 106,458.48 106,489.04 " fill="none" id="region-backto-onprem_region" style="stroke:#FFAF37;stroke-width:2.0;"/><polygon fill="none" points="106,368.63,100,386.63,112,386.63,106,368.63" style="stroke:#FFAF37;stroke-width:2.0;"/></g><!--reverse link resource to phantom_resource--><g id="link_resource_phantom_resource"><path codeLine="36" d="M106,65.05 C106,95.57 106,136.9 106,167.47 " fill="none" id="resource-backto-phantom_resource" style="stroke:#FFAF37;stroke-width:2.0;"/><polygon fill="none" points="106,47.05,100,65.05,112,65.05,106,47.05" style="stroke:#FFAF37;stroke-width:2.0;"/></g><!--reverse link phantom_resource to region--><g id="link_phantom_resource_region"><path codeLine="37" d="M106,225.84 C106,256.36 106,297.69 106,328.25 " fill="none" id="phantom_resource-backto-region" style="stroke:#FFAF37;stroke-width:2.0;"/><polygon fill="none" points="106,207.84,100,225.84,112,225.84,106,207.84" style="stroke:#FFAF37;stroke-width:2.0;"/></g><!--SRC=[XP3BReCm44NtV8Mbh96WKKkGkacHgdOJLKttbS5Zi00F6fj6wUFVMmgD7DmaMv_ZkNUcKW8Oj9tTinRQ7CW4fbQwuyHRjYR2NOOD4bj8oUKocSDxrFQYiE4ji0Teti2gWi-DbqeLjGPZs9M3xdXHbuIz5kDuIroR7mJQEbRMS6FMrfBAUmjE6P7cAoddvdpeOYdYv0Oy3Ka0JKeKHI9Evyh5gBDx7uojUWSMkqVRe0MlfXVnQvrjEHXEIM_HFtwounCNGkcINJjlpsCdqa17xzkA2zmDjkIDSMEC1GAq-muoRoj8Lq8c_ygFf-IW64x7K7S4xIj1gL2pZo3uca1NSMrn80PxAi1bldriJVpsCmp3uuJW88vmdX9uiQCt_Vu6]--></g></svg>

<svg xmlns="http://www.w3.org/2000/svg" width="212" height="535" viewBox="0 0 212 535"><rect width="169" height="39.789" x="21.5" y="489.37" fill="#3D176E" rx="2.5" ry="2.5" style="stroke:#000d19;stroke-width:.5"/><circle cx="36.5" cy="509.264" r="11" fill="#ADD1B2" style="stroke:#181818;stroke-width:1"/><path d="M39.469 514.905q-.578.297-1.219.438-.64.156-1.344.156-2.5 0-3.828-1.64-1.312-1.657-1.312-4.782t1.312-4.781q1.328-1.656 3.828-1.656.703 0 1.344.156.656.156 1.219.453v2.719q-.625-.579-1.219-.844-.594-.281-1.219-.281-1.343 0-2.031 1.078-.687 1.062-.687 3.156t.687 3.172q.688 1.062 2.031 1.062.625 0 1.219-.265.594-.282 1.219-.86z"/><text x="55.5" y="515.15" fill="#D9B8FF" font-family="Helvetica" font-size="17" textLength="127">onprem_region</text><rect width="198" height="39.789" x="7" y="167.79" fill="#3D176E" rx="2.5" ry="2.5" style="stroke:#000d19;stroke-width:.5"/><circle cx="22" cy="187.685" r="11" fill="#ADD1B2" style="stroke:#181818;stroke-width:1"/><path d="M24.969 193.325q-.578.297-1.219.438-.64.156-1.344.156-2.5 0-3.828-1.64-1.312-1.657-1.312-4.782t1.312-4.781q1.328-1.656 3.828-1.656.703 0 1.344.156.656.156 1.219.453v2.719q-.625-.578-1.219-.844-.594-.281-1.219-.281-1.343 0-2.031 1.078-.687 1.062-.687 3.156t.687 3.172q.688 1.062 2.031 1.062.625 0 1.219-.265.594-.281 1.219-.86z"/><text x="41" y="193.57" fill="#D9B8FF" font-family="Helvetica" font-size="17" textLength="156">phantom_resource</text><rect width="95" height="39.789" x="58.5" y="328.58" fill="#3D176E" rx="2.5" ry="2.5" style="stroke:#000d19;stroke-width:.5"/><circle cx="73.5" cy="348.474" r="11" fill="#ADD1B2" style="stroke:#181818;stroke-width:1"/><path d="M76.469 354.115q-.578.297-1.219.438-.64.156-1.344.156-2.5 0-3.828-1.64-1.312-1.657-1.312-4.782t1.312-4.781q1.328-1.656 3.828-1.656.703 0 1.344.156.656.156 1.219.453v2.719q-.625-.579-1.219-.844-.594-.281-1.219-.281-1.344 0-2.031 1.078-.687 1.062-.687 3.156t.687 3.172q.688 1.062 2.031 1.062.625 0 1.219-.265.594-.281 1.219-.86z"/><text x="92.5" y="354.36" fill="#D9B8FF" font-family="Helvetica" font-size="17" textLength="53">region</text><rect width="113" height="39.789" x="49.5" y="7" fill="#3D176E" rx="2.5" ry="2.5" style="stroke:#000d19;stroke-width:.5"/><circle cx="64.5" cy="26.895" r="11" fill="#ADD1B2" style="stroke:#181818;stroke-width:1"/><path d="M67.469 32.535q-.578.297-1.219.438-.64.156-1.344.156-2.5 0-3.828-1.64-1.312-1.657-1.312-4.782t1.312-4.781q1.328-1.656 3.828-1.656.703 0 1.344.156.656.156 1.219.453v2.719q-.625-.578-1.219-.844-.594-.281-1.219-.281-1.344 0-2.031 1.078-.687 1.062-.687 3.156T63 29.879q.688 1.062 2.031 1.062.625 0 1.219-.265.594-.281 1.219-.86z"/><text x="83.5" y="32.78" fill="#D9B8FF" font-family="Helvetica" font-size="17" textLength="71">resource</text><path fill="none" d="M106 386.63v102.41m0-120.41-6 18h12zm0-303.58v102.42m0-120.42-6 18h12zm0 178.79v102.41m0-120.41-6 18h12z" style="stroke:#ffaf37;stroke-width:2"/></svg>
